!!!OTL: Die elfjaehrige Markgraefin.
!!!OTL-incipit: Et quam sick es Heerken ut Dania,
!!!ARE: Europa, Mitteleuropa, Deutschland (BRD), Westfalen
!!!YOR: 2, S. 281
!!    1842 aufgezeichnet
!!!SCT: Q0053B
!!!YEM: Copyright 1995, estate of Helmut Schaffrath.
**kern	**text
*ICvox	*
*M3/4	*
*k[b-]	*
*F:	*
{4c	1._Et
=1	=1
4f	quam
4f	ſick
4g	en
=2	=2
4a	Heer-
4a	-ken
4cc	ut
=3	=3
(<4a	Da-
4b-)	.
4a	-ni-
=4	=4
4f	-a,
4r}	.
{8aL	dat
8b-J	.
=5	=5
4cc	fryt
4cc	no
4dd	de
=6	=6
4cc	Weerts-
4cc	-frau
8dd	eh-
8ee	-re
=7	=7
(4ff	Doch-
4dd	.
4ee)	.
=8	=8
4ff	-ter:
4r}	.
{8aL	'O
8b-J	.
=9	=9
4cc	Wirthsfrau,
4cc	.
4b-	wollt
=10	=10
4a	Jhr
4g	mir
8a	Eu-
8a	-re
=11	=11
4f	Toch-
4e	-ter
8fL	wohl
8aJ	.
=12	=12
[4g	ge-
4g]}	-ben?
{8aL	Jch
8b-J	.
=13	=13
4cc	will
4cc	ſie
4b-	ʒu
=14	=14
4a	mei-
4g	-ner
4a	ächt
=15	=15
(4f	Haus-
4d)	.
4e	-frau
=16	=16
[4f	neh-
4f]}	-men.'
==	==
!!!AGN: Ballade, Braut - Werbung, Hochzeit, Minderjaehrige, Tod
!!!ONB: ESAC (Essen Associative Code) Database: BALLADE
!!!AMT: simple triple
!!!AIN: vox
!!!EED: Helmut Schaffrath
!!!EEV: 1.0
!!@@COMMENT:"JbfVf 1, 98. Aufʒeichnung Annettes von Droſte (Weſtfalen), 1842."
!!@@END:
!!!source: Deutsche Volkslieder mit ihren Melodien. Herausgegeben vom Deutschen Volksliedarchiv. Zweiter Band Balladen. Berlin 1939.
!!!page: 281
!!!ENC: Anna Maria Matuszewska
!!!EEV: 2025/02/17
*-	*-
